packages/ui-icons/src/Basic/24/Video-recording_24.svg

<svg xmlns="http://www.w3.org/2000/svg" viewBox="0 0 32 32"><path d="M23 11.25v-2A2.21 2.21 0 0 0 20.79 7H6.21A2.21 2.21 0 0 0 4 9.21v13.58A2.21 2.21 0 0 0 6.21 25h14.58A2.21 2.21 0 0 0 23 22.79v-2l3.65 1.6 1.35-.93V10.54l-1.35-.89Zm3 8.62-3.35-1.47-1.65.75v3.64a.21.21 0 0 1-.21.21H6.21a.21.21 0 0 1-.21-.21V9.21A.21.21 0 0 1 6.21 9h14.58a.21.21 0 0 1 .21.21v3.64l1.65.74L26 12.12Z"/><path d="M14 11.94a4 4 0 1 0 4 4 4 4 0 0 0-4-4Zm0 6a2 2 0 1 1 2-2 2 2 0 0 1-2 2Z"/></svg>

<svg id="Ready" xmlns="http://www.w3.org/2000/svg" viewBox="0 0 32 32"><title>Megaicons_work_24_1.8_cp</title><path d="M23,11.25v-2A2.21,2.21,0,0,0,20.79,7H6.21A2.21,2.21,0,0,0,4,9.21V22.79A2.21,2.21,0,0,0,6.21,25H20.79A2.21,2.21,0,0,0,23,22.79v-2l3.65,1.6L28,21.46V10.54l-1.35-.89Zm3,8.62-3.35-1.47L21,19.15v3.64a.21.21,0,0,1-.21.21H6.21A.21.21,0,0,1,6,22.79V9.21A.21.21,0,0,1,6.21,9H20.79a.21.21,0,0,1,.21.21v3.64l1.65.74L26,12.12Z"/><path d="M14,11.94a4,4,0,1,0,4,4A4,4,0,0,0,14,11.94Zm0,6a2,2,0,1,1,2-2A2,2,0,0,1,14,17.94Z"/></svg>
